X:1
T:C Major      Abraham Wood, 1793
T:Isaac Watts, 1719 (Psalm 132) Book of Common Prayer, 1662
T:Dedication
T:Transcribed from The Columbian Harmony, 1793.
T:Anthem based on Psalm 132
%%score [ 1 2 3 ( 4 5 ) ]
L:1/8
Q:1/4=120
M:4/4
K:C
V:1 treble nm="Tr." snm="Tr."
V:2 treble nm="C." snm="C."
V:3 treble-8 nm="T." snm="T."
V:4 bass nm="B." snm="B."
V:5 bass 
V:1
 G4 G2 G2 | G4 z4 | B4 B2 B2 | B4 z4 | c4 G2 A2 | d6 d2 | (e2 d2 c2) B2 | c6 z2 | z8 | z4 z2 G2 | %10
w: |||||* to|seek~ _ _ and|find|||
 c2 c2 d2 d2 | (c2 B2) A4 | G6 G2 | G2 G2 c2 c2 | A4 A4 | B6 x2 | c6 G2 | c6 BA | G4 G4 | G8 || %20
w: ||||||||||
[M:2/4][Q:1/4=80] z2 c2 | e3 d | cB z2 | B3 G | G2 z G | GB z B | Bc z c | c B3 | B3 e | dc B2 | %30
w: ||||||||||
 A4- | A3 z | z4 | z2 z c | ee ee | cc c2- | c3 c | cc ff | dd (d>c | B3) B | c>d ed | c3 d | c4 | %43
w: |||And|Zi- on is his|dwel- ling still.~|_ _|||||||
 B4 | c4- | c4 | z4 ||[M:4/4][Q:1/4=120] G4 z4 | c4 A2 d2 | c6 B2 | c6 d2 | c4 z2 G2 | B2 B2 c B3 | %53
w: ||||||||||
 B4 G4 | G6 z2 | c4 c2 Bc | d6 d2 | e4 d4 | c4 z2 e2 | cdBc B2 A2 | A8 ||[K:F] z8 | A4 A2 A2 | %63
w: ||||||||||
 A6 c2 | c4 (B2 A2) | G6 F2 | (F2 G2) (G A3) | c6 c2 | G4 G4 | A8 | A4 d2 d2 | A8- | A6 A2 | %73
w: ||||||||||
 B4 c4 | c6 c2 | d6 c2 | c6 A2 ||[K:C] G4 G4 | G8 | z8 | z8 | z8 | z8 | z8 | z8 | z8 | z8 | %87
w: ||||||||||||||
 z4 z2 c2 | e3 d c2 c2 | A4 A4 | B8 | c2 GA (c4- | c3 d e2) d2 | c4 B4 | c8 || %95
w: ||||||||
[M:2/4][Q:1/4=80] z2 G2 | G3 c | c3 B | cd AB | (c2 B)B | cd c2- | c3 e | (c2 B2 | c3) A | B4- | %105
w: ||||||||||
 B2 z G | c>c cc | ee e>e | d>d d d/c/ | BB B2- | B2 z c | GG GG | GG G>G | cB cB | cc c>c | %115
w: ||||||||||
 BB Bc | (e/f/e/d/c/d/c/d/ | e3) d | c4 | G4 | G4- | G4 | z4 ||[M:4/4][Q:1/4=120] G4 G2 z2 | %124
w: |||||||||
 d4 d2 z2 | e4 e2 A2 | AA B2 B2 c2 | c2 B2 c4- | c2 z2 e2 c2 | d2 G2 A4 | B8 | c>d e2 efed | %132
w: |||||||As it was in * the be-|
 c2 c2 z4 | z8 | z AA z cc z c | e3 d cB c2 | B8 | c8 | d4 B4 | c8 | (G2 c2 B2 A2) | G8 | z4 c4 | %143
w: gin- ning,|||||||||||
 c8 | f8 | e8 |] %146
w: |||
V:2
 E4 E2 E2 | E4 z4 | G4 G2 G2 | G4 z4 | C4 D2 E2 | G6 G2 | (G2 F2 E2) D2 | E6 z2 | z8 | z4 z2 E2 | %10
w: Where shall we|go?|Where shall we|go?|Where shall we|go to|seek~ _ _ and|find||An|
 A2 A2 A2 A2 | G4 (F2 E2) | D6 E2 | E2 E2 E2 E2 | F4 F4 | G6 G2 | G6 G2 | A6 D2 | G4 F4 | E8 || %20
w: ha- bi- ta- tion|for our *|God? A|dwel- ling for th'e-|ter- nal|mind, A-|mong the|sons of|flesh and|blood?|
[M:2/4] z2 E2 | G3 G | GG z2 | G3 F | E2 z E | EG z G | GG z G | E D3 | G3 G | F2 E2 | E4- | E3 z | %32
w: The|God of|Ja- cob|chose the|hill of|Zi- on, of|Zi- on, of|Zi- on|for his|an- cient|rest.~|_|
 z4 | z4 | z2 z E | GG GG | GG GG | AA AA | GG G2- | G3 G | G3 G | E3 D | G4 | G4 | E4- | E4 | %46
w: ||And|Zi- on is his|dwel- ling still, And|Zi- on is his|dwel- ling still,~|_ His|church is|with his|pre-|sence|blessed.~|_|
 z4 ||[M:4/4] E4 z4 | G4 A2 G2 | E6 E2 | E6 TD2 | E4 z2 E2 | G2 G2 G G3 | G4 TG4 | E6 z2 | %55
w: |Here,|here will I|fix my|gra- cious|throne, And|reign for- ev- er,|saith the|Lord;|
 A4 A2 G2 | ^F6 F2 | G4 G4 | G4 z2 E2 | FFEE G2 E2 | F8 ||[K:F] z8 | F4 E2 E2 | F6 A2 | %64
w: Here shall my|power and|love be|known, And|bles- sings shall at- tend my|word.||Here I will|meet the|
 A4 (G2 F2) | E6 D2 | (A2 G2) F4 | E6 E2 | D4 C4 | C8 | D4 D2 D2 | F8- | F6 E2 | G4 G4 | A6 B2 | %75
w: hun- gry *|poor, And|fill * their|mouths with|li- ving|bread:|Sin- ners that|wait~|_ be-|fore my|door With|
 A6 G2 | F6 E2 ||[K:C] E4 D4 | E8 | z8 | E4 D2 C2 | G6 A2 | (G3 A G2) F2 | E6 DC | F6 ED | %85
w: sweet pro-|vi- sions|shall be|fed.||Gir- ded with|truth, and|clothed~ _ _ with|grace, My *|priests, my *|
 G3 A G2 F2 | (E3 G F3 A | G6) G2 | G3 G A2 G2 | ^F4 F4 | G8 | A2 GF E4- | E6 A2 | G4 TG4 | E8 || %95
w: mi- ni- sters, shall|shine:~ _ _ _|_ Not|Aa- ron in his|cost- ly|dress|Made an ap- pear-|* ance|so di-|vine.|
[M:2/4] z2 C2 | E3 E | E3 E | GA AG | G3 G | GF E2- | E3 C | G2- G2- | G3 F/E/ | D4- | D2 z D | %106
w: The|saints, un-|a- ble|to * con- *|tain their|in- ward joys,~|_ shall|shout~ _|_ and *|sing;~|_ The|
 G>G GG | AA A>A | A>A AA | GG G2- | G2 z G | EE EE | EE E>G | GG GG | GG G>G | GG GG | %116
w: Son of Da- vid|here shall reign, The|Son of Da- vid|here shall reign,~|_ And|Zi- on tri- umph|in her King, And|Zi- on tri- umph|in her King, And|Zi- on tri- umph,|
 (GA/B/ cB/A/ | G3) A | (G2 FE) | TD4 | E4- | E4 | z4 ||[M:4/4] E4 E2 z2 | F4 F2 z2 | E4 E2 E2 | %126
w: tri- * * * * *|* umph|in~ _ _|her|King.~|_||Glo- ry,|glo- ry,|glo- ry be|
 EE G2 G2 A2 | G2 G2 E4- | E2 z2 G2 A2 | ^F2 G2 D4 | D8 | E>F G2 GAGF | E2 E2 z4 | z8 | %134
w: to the Fa- ther, and|to the Son,~|_ and to|the Ho- ly|Ghost,||||
 z AA z AA z G | E3 A GG ^F2 | G8 | G8 | A4 G4 | G8 | (E2 A2 G4) | E8 | z4 F4 | E8 | A8 | G8 |] %146
w: Is now, is now, iw|now and ev- er shall|be,|World|with- out|end,|A- * *|men,|A-|men,|A-|men.|
V:3
 c4 c2 c2 | c4 z4 | d4 d2 d2 | d4 z4 | e4 d2 c2 | g6 z2 | z8 | z4 z2 d2 | (e2 d2 c2) B2 | c6 c2 | %10
w: |||||||to|seek~ _ _ and|find *|
 A2 A2 A2 A2 | G4 ^F4 | G6 G2 | c2 c2 c2 c2 | (f2 e2) (d2 c2) | d6 d2 | (e3 d c2) B2 | %17
w: |||||||
 (c3 B A2) GF | E4 D4 | C8 ||[M:2/4] z2 G2 | c3 d | ec z2 | d3 B | c2 z c | cd z d | de z e | %27
w: ||||||||||
 e g3 | d3 c/B/ | A2 ^G2 | A4- | A3 z | z2 z c | ee ee | cc c2- | c4- | c3 c | AA dd | dd d2- | %39
w: |||||And|Zi- on is his|dwel- ling still.~|_||||
 d3 d | e>d cB | c>B Af | e4 | d4 | c4- | c4 | z4 ||[M:4/4] c4 z4 | c4 c2 B2 | c6 B2 | A6 G2 | %51
w: ||||||||||||
 G4 z2 c2 | d2 d2 e d3 | d4 B4 | c6 z2 | A4 A2 ^G2 | A6 B2 | c4 d4 | e4 z2 c2 | AAGA d2 ^c2 | d8 || %61
w: ||||||||||
[K:F] z8 | d4 ^c2 c2 | d6 e2 | f4 (e2 d2) | c6 A2 | (d2 c2) (B2 A2) | G6 c2 | (B2 A2) G4 | F8 | %70
w: |||||||||
 F4 A2 A2 | d8- | d6 ^c2 | d4 e4 | f6 g2 | (f3 e d2) cB | A6 c2 ||[K:C] c4 B4 | c8 | z8 | z8 | z8 | %82
w: ||||||||||||
 z8 | z8 | z8 | z8 | z8 | z4 z2 G2 | c3 B A2 Bc | (d2 c2) (B2 A2) | G8 | cdef (g4- | g3 a g2) f2 | %93
w: |||||||||||
 e4 d4 | c8 ||[M:2/4] z2 G2 | c3 G | c3 G | GF FE | (E2 D)D | EF G2- | G3 G | (c>e d>f | e3) f | %104
w: |||||||||||
 g4- | g2 z d | e>e ee | cc c>c | f>f ff | dd d2- | d2 z G | cG cG | cc c>d | ed ed | ee e>e | %115
w: |||||||||||
 dd GG | (c/d/c/d/e/f/e/f/ | g3) f | e4 | d4 | c4- | c4 | z4 ||[M:4/4] c4 c2 z2 | A4 A2 z2 | %125
w: ||||||||||
 c4 c2 c2 | cc d2 d2 f2 | e2 d2 c4- | c2 z2 c2 A2 | A2 G2 ^F4 | G8 | z8 | z4 z2 d>d | %133
w: |||||||As it|
 e2 gf e d/c/ d2 | ddd z ee z e | g3 f ed c2 | d8 | e8 | f4 d4 | e8 | (g2 fe d4) | c8 | z4 A4 | %143
w: was in * the be- * gin-|ning, * * * * *|||||||||
 G8 | c8 | c8 |] %146
w: |||
V:4
 C,4 C,2 C,2 | C,4 z4 | G,4 G,2 G,2 | G,4 z4 | C4 B,2 A,2 | G,6 z2 | z8 | z4 z2 G,2 | %8
w: ||||||||
 (C2 B,2 A,2) G,2 | C,6 C,2 | F,2 F,2 D,2 D,2 | E,4 D,4 | G,,6 C,2 | C,2 C,2 C,2 C,2 | D,4 D,4 | %15
w: |||||||
 G,6 G,2 | (C3 B, A,2) G,2 | F,6 G,2 | G,4 x4 | C,8 || %20
w: |||||
[M:2/4]"^____________________________________________________________\nEdited by B. C. Johnston, 2017.\n Measure 66, \nTenor\n: the first note (C) is sharped; probably a misprint, sharp ignored.  \n" z2 C,2 | %21
w: |
 C,3 G, | CG, z2 | G,3 G, | C,2 z C, | C,G, z G, | G,C z C | C G,3 | G,3 C, | D,2 E,2 | A,,4- | %31
w: ||||||||||
 A,,3 C, | G,G, G,G, | C,C, C,2- | C,4- | C,4- | C,3 C, | F,F, D,D, | G,G, G,2- | G,3 G, | %40
w: * And|Zi- on is his|dwel- ling still.~|_||||||
 C>B, A,G, | A,3 B, | C4 | G,4 | C,4- | C,4 | z4 ||[M:4/4] C,4 z4 | C,4 F,2 G,2 | A,6 E,2 | %50
w: ||||||||||
 A,,6 B,,2 | C,4 z2 C,2 | G,2 G,2 C G,3 | G,4 G,,4 | C,6 z2 | F,4 F,2 E,2 | D,6 D,2 | C,4 G,4 | %58
w: ||||||||
 C4 z2 C,2 | F,D,E,C, [G,,G,]2 [A,,A,]2 | D,8 ||[K:F] z8 | D,4 A,,2 A,,2 | D,6 A,2 | F,4 G,4 | %65
w: |||||||
 C,6 D,2 | (D,2 E,2) F,4 | C,6 A,,2 | ^A,,4 C,4 | F,,8 | D,4 D,2 D,2 | D,8- | D,6 A,2 | G,4 C4 | %74
w: |||||||||
 F,6 E,2 | D,6 E,2 | F,6 F,2 ||[K:C] G,4 G,,4 | C,8 | z8 | z8 | z8 | z8 | z8 | z8 | z8 | z8 | %87
w: |||||||||||||
 z4 z2 C,2 | C,3 C, F,2 E,2 | D,4 D,4 | G,,8 | F,2 E,D, C,4- | C,6 D,2 | (E,2 F,2) G,4 | C,8 || %95
w: ||||||||
[M:2/4] z2 C,2 | C,3 C, | C,3 E, | E,D, D,C, | (C,2 G,,)G,, | C,B,, C,2- | C,3 C, | (C,2 G,2 | %103
w: ||||||||
 C3) D | G,4- | G,2 z G, | E,>E, E,E, | A,A, A,>A, | D,>D, D,D, | G,G, G,2- | G,2 z C, | %111
w: ||||||||
 C,C, C,C, | C,C, C,>G, | CG, CG, | CC C>C | G,G, E,E, | C,4- | C,3 D, | (E,2 F,2) | G,4 | C,4- | %121
w: ||||||||||
 C,4 | z4 ||[M:4/4] C,4 C,2 z2 | D,4 D,2 z2 | A,,4 A,,2 A,,2 | A,,A,, G,,2 G,,2 F,,2 | %127
w: ||||||
 G,,2 G,,2 C,4- | C,2 z2 C,2 F,2 | D,2 E,2 D,4 | G,,8 | z8 | z4 z2 G,>G, | C2 ED C B,/A,/ G,2 | %134
w: |||||||
 G,D,D, z A,,A,, z C, | C,3 D, E,G, A,2 | G,8 | E,8 | D,4 G,4 | C,8 | (E,2 F,2 G,4) | C,8 | %142
w: ||||||||
 z4 F,4 | C,8 | F,8 | C,8 |] %146
w: ||||
V:5
 x8 | x8 | G,,4 G,,2 G,,2 | G,,4 x4 | C,4 B,,2 A,,2 | G,,6 x2 | x8 | x4 x2 G,,2 | %8
 (C,2 B,,2 A,,2) G,,2 | x8 | x8 | E,,4 D,,4 | x8 | x8 | x8 | G,,6 G,,2 | C,6 G,,2 | F,,6 G,,2 | %18
 G,,4 G,,4 | C,,8 ||[M:2/4] x4 | x3 B,, | A,,G,, x2 | G,,3 G,, | x4 | x G,, x G,, | G,,C, x C, | %27
 C, G,,3 | G,,3 x | D,,2 E,,2 | x4 | x4 | x4 | x4 | x4 | x4 | x4 | x4 | G,,G,, G,,2- | G,,3 G,, | %40
 C,3 G,, | A,,3 G,, | C,4 | G,,4 | x4 | x4 | x4 ||[M:4/4] x8 | x4 F,,2 G,,2 | A,,6 E,,2 | x8 | x8 | %52
 x2 G,,2 G,, G,,3 | G,,4 x4 | x8 | F,,4 F,,2 E,,2 | D,,6 x2 | x4 G,,4 | C,4 x4 | x8 | x8 || %61
[K:F] x8 | x8 | x8 | F,,4 G,,4 | x8 | x8 | x8 | x8 | x8 | x8 | D,,8- | D,,6 A,,2 | G,,4 C,4 | %74
 F,,6 G,,2 | x8 | x8 ||[K:C] x8 | x8 | x8 | x8 | x8 | x8 | x8 | x8 | x8 | x8 | x8 | x8 | x4 D,,4 | %90
 x8 | x8 | x8 | (E,,2 F,,2) G,,4 | x8 ||[M:2/4] x4 | x4 | x4 | x4 | x4 | x4 | x4 | x2 G,,2 | %103
 C,3 D,, | G,,4- | G,,2 x2 | x4 | A,,A,, A,,>A,, | x4 | G,,G,, G,,2- | G,,2 x2 | x4 | %112
 x x x3/2 G,,/ | C,G,, C,G,, | C,C, C,>C, | x4 | x4 | x3 F,, | (E,,2 F,,2) | G,,4 | x4 | x4 | x4 || %123
[M:4/4] x8 | x8 | x8 | x8 | x8 | x8 | x4 D,,4 | x8 | x8 | x8 | x8 | x8 | x3 x x G,, F,,2 | G,,8 | %137
 x8 | D,,4 G,,4 | x8 | (E,,2 F,,2 G,,4) | x8 | x4 F,,4 | x8 | F,,8 | x8 |] %146

